assets/components_previews/charts/light/areachart.svg

<svg xmlns="http://www.w3.org/2000/svg" width="320" height="232" fill="none" viewBox="0 0 320 232"><g filter="url(#a)"><g clip-path="url(#b)"><rect width="216" height="108" x="52" y="62" fill="#fff" rx="12"/><path fill="#FAF8FF" d="M109 142.5C81.5 142.5 67.5 83 42 83v89h242.5v-72H276c-40.5 0-39.5 34-66 34s-30.5-31-50-31-23.5 39.5-51 39.5"/><path stroke="#D4CAFE" stroke-linecap="round" stroke-width="2" d="M42 83c25.5 0 39.5 59.5 67 59.5s31.5-39.5 51-39.5 23.5 31 50 31 25.5-34 66-34"/></g></g><defs><clipPath id="b"><rect width="216" height="108" x="52" y="62" fill="#fff" rx="12"/></clipPath><filter id="a" width="256" height="148" x="32" y="54" color-interpolation-filters="sRGB" filterUnits="userSpaceOnUse"><feFlood flood-opacity="0" result="BackgroundImageFix"/><feColorMatrix in="SourceAlpha" result="hardAlpha" values="0 0 0 0 0 0 0 0 0 0 0 0 0 0 0 0 0 0 127 0"/><feOffset dy="12"/><feGaussianBlur stdDeviation="10"/><feComposite in2="hardAlpha" operator="out"/><feColorMatrix values="0 0 0 0 0 0 0 0 0 0 0 0 0 0 0 0 0 0 0.03 0"/><feBlend in2="BackgroundImageFix" result="effect1_dropShadow_10191_39461"/><feColorMatrix in="SourceAlpha" result="hardAlpha" values="0 0 0 0 0 0 0 0 0 0 0 0 0 0 0 0 0 0 127 0"/><feOffset dy="2"/><feGaussianBlur stdDeviation="3"/><feComposite in2="hardAlpha" operator="out"/><feColorMatrix values="0 0 0 0 0 0 0 0 0 0 0 0 0 0 0 0 0 0 0.05 0"/><feBlend in2="effect1_dropShadow_10191_39461" result="effect2_dropShadow_10191_39461"/><feBlend in="SourceGraphic" in2="effect2_dropShadow_10191_39461" result="shape"/></filter></defs></svg>

<svg width="320" height="232" viewBox="0 0 320 232" fill="none" xmlns="http://www.w3.org/2000/svg">
<g filter="url(#filter0_dd_10191_39461)">
<g clip-path="url(#clip0_10191_39461)">
<rect x="52" y="62" width="216" height="108" rx="12" fill="white"/>
<path d="M109 142.5C81.5 142.5 67.5 83 42 83V172H284.5V100H276C235.5 100 236.5 134 210 134C183.5 134 179.5 103 160 103C140.5 103 136.5 142.5 109 142.5Z" fill="#FAF8FF"/>
<path d="M42 83C67.5 83 81.5 142.5 109 142.5C136.5 142.5 140.5 103 160 103C179.5 103 183.5 134 210 134C236.5 134 235.5 100 276 100" stroke="#D4CAFE" stroke-width="2" stroke-linecap="round"/>
</g>
</g>
<defs>
<filter id="filter0_dd_10191_39461" x="32" y="54" width="256" height="148" filterUnits="userSpaceOnUse" color-interpolation-filters="sRGB">
<feFlood flood-opacity="0" result="BackgroundImageFix"/>
<feColorMatrix in="SourceAlpha" type="matrix" values="0 0 0 0 0 0 0 0 0 0 0 0 0 0 0 0 0 0 127 0" result="hardAlpha"/>
<feOffset dy="12"/>
<feGaussianBlur stdDeviation="10"/>
<feComposite in2="hardAlpha" operator="out"/>
<feColorMatrix type="matrix" values="0 0 0 0 0 0 0 0 0 0 0 0 0 0 0 0 0 0 0.03 0"/>
<feBlend mode="normal" in2="BackgroundImageFix" result="effect1_dropShadow_10191_39461"/>
<feColorMatrix in="SourceAlpha" type="matrix" values="0 0 0 0 0 0 0 0 0 0 0 0 0 0 0 0 0 0 127 0" result="hardAlpha"/>
<feOffset dy="2"/>
<feGaussianBlur stdDeviation="3"/>
<feComposite in2="hardAlpha" operator="out"/>
<feColorMatrix type="matrix" values="0 0 0 0 0 0 0 0 0 0 0 0 0 0 0 0 0 0 0.05 0"/>
<feBlend mode="normal" in2="effect1_dropShadow_10191_39461" result="effect2_dropShadow_10191_39461"/>
<feBlend mode="normal" in="SourceGraphic" in2="effect2_dropShadow_10191_39461" result="shape"/>
</filter>
<clipPath id="clip0_10191_39461">
<rect x="52" y="62" width="216" height="108" rx="12" fill="white"/>
</clipPath>
</defs>
</svg>
